X:87
T:Pipe on the Hob
Z:robin.beech@mcgill.ca
R:jig
M:6/8
L:1/8
K:Ador
c3 edc | edc BAG | ABA gfg | eaf ged |
c3 edc | edc deg | age dBe |1 ABA A2B :|2 ABA A2f |:
g3 gea | age edB | ABA gfg | eaf gef |
g3 gea | age deg | age dBe |1 ABA A2f :|2 ABA A2B |:
cBc dcd | ecA AGE | cBc dcd | ecA A2B |
cBc dcd | ede gab | age dBe |1 ABA A2B :|2 ABA A3 |]
